X: 40690
T: Torn Jacket, The
R: reel
M: 4/4
K: Dmajor
|:~F3 A dfed|cA ~A2 cdeA|~F3 A dfed|cAGE FD ~D2|
~F3 A dfed|cA ~A2 cdeA|dcde fded|cAGE FD ~D2:|
|:FAdf ~a3 f|~g3 f gfed|cA ~A2 cdef|gfed cAGA|
FAdf ~a3 f|~g3 f gfef|g2 ba gfed|cAGE FD ~D2:|

